storage/app/icons/phosphoricons/fill/list-bullets-fill.svg

<svg xmlns="http://www.w3.org/2000/svg" fill="currentColor" viewBox="0 0 256 256"><path d="M208 32H48a16 16 0 0 0-16 16v160a16 16 0 0 0 16 16h160a16 16 0 0 0 16-16V48a16 16 0 0 0-16-16M68 188a12 12 0 1 1 12-12 12 12 0 0 1-12 12m0-48a12 12 0 1 1 12-12 12 12 0 0 1-12 12m0-48a12 12 0 1 1 12-12 12 12 0 0 1-12 12m124 92h-88a8 8 0 0 1 0-16h88a8 8 0 0 1 0 16m0-48h-88a8 8 0 0 1 0-16h88a8 8 0 0 1 0 16m0-48h-88a8 8 0 0 1 0-16h88a8 8 0 0 1 0 16"/></svg>

<svg xmlns="http://www.w3.org/2000/svg" viewBox="0 0 256 256" fill="currentColor"><path d="M208,32H48A16,16,0,0,0,32,48V208a16,16,0,0,0,16,16H208a16,16,0,0,0,16-16V48A16,16,0,0,0,208,32ZM68,188a12,12,0,1,1,12-12A12,12,0,0,1,68,188Zm0-48a12,12,0,1,1,12-12A12,12,0,0,1,68,140Zm0-48A12,12,0,1,1,80,80,12,12,0,0,1,68,92Zm124,92H104a8,8,0,0,1,0-16h88a8,8,0,0,1,0,16Zm0-48H104a8,8,0,0,1,0-16h88a8,8,0,0,1,0,16Zm0-48H104a8,8,0,0,1,0-16h88a8,8,0,0,1,0,16Z"/></svg>
